X:1
T:Title
%%score { 1 | 2 }
L:1/8
M:6/4
K:Ab
V:1 bass nm="Grand Piano"
V:2 bass 
V:1
 z6 z4[Q:1/4=117] [E,A,C]>[E,B,D] | [A,CE]4 [A,DF][A,DG] [CEA]2 [DEB]3 [CEA] | A2 G4- G4 G>A | %3
 [=DB]3 [DF] [DF]2 [DB]2 [DB]2 [Dc]2 | [EB]6- [EB]4 [CA][DB] | c4 A>A [CA]2 [DB]2 [Ec]2 | %6
 [Fd]2 [Fd]4- [Fd]4 FF | E4 AA G2 A2 B2 |[M:5/4] [CEA]2- [CEA]2- [CEA]6 |[M:1/4] [A,EA]2 | %10
[M:6/4] [Fd]4 [Fd]2 [FA]4 [=EB]2 | [Ec]2 [Ec]4- [Ec]4 [Ec]2 | [=DB]4 [DF]2 [DB]4 [Dc]2 | %13
[M:5/4] [EB]2- [EB]2- [EB]6 |[M:1/4] [DE]2 |[M:6/4] [CE]4 [CA]2 [CA]2 [DB]2 [Ec]2 | %16
 [Fd]2 [Fd]4- [Fd]4 F2 | E4 A2 c4 B2 |[M:5/4] [CA]2- [CA]2- [CA]6 |] %19
V:2
 z6 z4 A,,>A,, | A,,4 A,,A,, A,,2 A,,3 A,, | [E,CE]2 [E,B,E]4- [E,B,E]4 [E,B,E]>[E,CE] | %3
 [B,,B,]3 [B,,B,] [B,,B,]2 [B,,B,]2 [B,,B,]2 B,,2 | [E,G,]6- [E,G,]4 [A,,A,][A,,A,] | %5
 [A,E]4 [A,C]>[A,C] [A,,A,]2 [A,,A,]2 [A,,A,]2 | [D,A,]2 [D,A,]4- [D,A,]4 [D,A,D][D,A,D] | %7
 [E,A,C]4 [E,CE][E,CE] [E,B,E]2 [E,CE]2 [E,DE]2 |[M:5/4] A,,2- A,,2- A,,6 |[M:1/4] C,2 | %10
[M:6/4] [D,A,]4 [D,A,]2 [D,A,]4 [D,A,]2 | [A,,A,]2 [A,,A,]4- [A,,A,]4 [A,,A,]2 | %12
 [B,,F,]4 [B,,B,]2 [B,,F,]4 [B,,A,]2 |[M:5/4] [E,G,]2- [E,G,]2- [E,G,]6 |[M:1/4] [E,G,]2 | %15
[M:6/4] [A,,A,]4 [A,,A,]2 [A,,A,]4 [A,,A,]2 | [D,A,]2 [D,A,]4- [D,A,]4 [D,A,D]2 | %17
 [E,A,C]4 [E,A,C]2 [E,A,E]4 [E,G,D]2 |[M:5/4] [A,,A,]2- [A,,A,]2- [A,,A,]6 |] %19

